X:1946
T:Fiddlers Mountain
O:england
R:reel
C:Ed Reavy
M:2/2
L:1/8
N:Fiddlers need to be heard, so why not a place apart, a mountain
N:just for them. And where is this spot to be where the great tunes
N:of Ireland are commemorated? If it is only in the mind of man,
N:it is place enough for those of us who seek it.
K:C
AB|cGAG EGGB|cGAB cded|cGAG EGGB|cedB (3AGA AB|
cGAG EGGB|CGAB cded|cGAG EGAB|cedB (3ABA AB|
cde^f gfge|dBGB dedB|cde^f gfge|a2 (3ba^g a=ged|
^cde^f gfge|dBGB dedB|^cde^f gfge|1(3a^ga (3bag a=ged:|
2a2 (3ba^g a2||


